build/assets/images/icons/tw.svg

<svg width="28" height="28" viewBox="0 0 28 28" fill="none" xmlns="http://www.w3.org/2000/svg">
<rect width="28" height="28" rx="14" fill="#E8EDF5"/>
<path d="M19.5508 10.9062C20.0977 10.4961 20.5898 10.0039 20.9727 9.42969C20.4805 9.64844 19.9062 9.8125 19.332 9.86719C19.9336 9.51172 20.3711 8.96484 20.5898 8.28125C20.043 8.60938 19.4141 8.85547 18.7852 8.99219C18.2383 8.41797 17.5 8.08984 16.6797 8.08984C15.0938 8.08984 13.8086 9.375 13.8086 10.9609C13.8086 11.1797 13.8359 11.3984 13.8906 11.6172C11.5117 11.4805 9.37891 10.332 7.95703 8.60938C7.71094 9.01953 7.57422 9.51172 7.57422 10.0586C7.57422 11.043 8.06641 11.918 8.85938 12.4375C8.39453 12.4102 7.92969 12.3008 7.54688 12.082V12.1094C7.54688 13.5039 8.53125 14.6523 9.84375 14.9258C9.625 14.9805 9.35156 15.0352 9.10547 15.0352C8.91406 15.0352 8.75 15.0078 8.55859 14.9805C8.91406 16.1289 9.98047 16.9492 11.2383 16.9766C10.2539 17.7422 9.02344 18.207 7.68359 18.207C7.4375 18.207 7.21875 18.1797 7 18.1523C8.25781 18.9727 9.76172 19.4375 11.4023 19.4375C16.6797 19.4375 19.5508 15.0898 19.5508 11.2891C19.5508 11.1523 19.5508 11.043 19.5508 10.9062Z" fill="#17479E"/>
</svg>

<svg width="28" height="28" fill="none" xmlns="http://www.w3.org/2000/svg"><rect width="28" height="28" rx="14" fill="#E8EDF5"/><path d="M19.55 10.906a6.082 6.082 0 001.423-1.476 5.382 5.382 0 01-1.641.437 2.805 2.805 0 001.258-1.586 6.063 6.063 0 01-1.805.711 2.871 2.871 0 00-2.105-.902 2.87 2.87 0 00-2.871 2.87c0 .22.027.438.082.657A8.33 8.33 0 017.957 8.61c-.246.41-.383.903-.383 1.45 0 .984.492 1.859 1.285 2.379-.464-.028-.93-.137-1.312-.356v.027c0 1.395.984 2.543 2.297 2.817-.219.054-.492.11-.739.11-.19 0-.355-.028-.546-.056a2.857 2.857 0 002.68 1.997 5.773 5.773 0 01-3.555 1.23c-.247 0-.465-.027-.684-.055 1.258.82 2.762 1.285 4.402 1.285 5.278 0 8.149-4.347 8.149-8.148v-.383z" fill="#17479E"/></svg>
